X: 22864
T: Lark In The Morning, The
R: jig
M: 6/8
K: Dmajor
B|B2 A B2 c|d3 d2 B|A2 B A2 F|D3 DEF|G2 F G2 A|
B2 d B2 A|G2E FED|(E3 E2) e|e2 E E2 E|{^d}e2 f/e/ d2 B|
A2 B A2 F|D3 DEF|G2 F G2 A|B2 d B2 A|G2 E F2 D|(E3|E2)||

